X:1856
T:La Caroline
C:Carl Philipp Emanuel Bach
O:Germany
Z:Transcribed by Frank Nordberg - http://www.musicaviva.com
F:http://abc.musicaviva.com/tunes/bach-carl-philipp-emanuel/bach-cpe-caroline/bach-cpe-caroline-pno2.abc
V:1 Program 1 6 up %Harpsichord
V:2 Program 1 6 merge down %Harpsichord
V:3 Program 1 6 bass %Harpsichord
M:2/4
L:1/8
K:Am
K:Am
V:1
x4|x4|x4|x4|x4|
V:2
[c4e4]|[d4f4]|[B4^g4]|[c4a4]|c'e{g}fe|
V:3
z A,A,A,|z A,A,A,|z A,A,A,|z A,E,C,|A,,4|
%
V:1
x4|x4|x4|x4|x4|
V:2
e2^d z|b=d{f}ed|d2^c z|a=cBA|acBA|
V:3
z B,,B,A,|^G,4|z A,,A,G,|F,4|E,4|
%
V:1
x4|A2^G[GB]|[^G2B2][Ac][^F^d]|[^F2^d2][^Ge][GB]|x4|
V:2
[A2B2f2]e/d/c/B/|x4|x4|x4|[B2=d2][A2c2]|
V:3
D,D,D,D,|E,E,E,E,|E,E,E,E,|E,E,E,E,|^D,D,D,D,|
%
V:1
[^GB]E2E-|EE2E-|E[^G,B,][A,C][B,D]|[B,2=D2][A,2C2]|[A,4C4]|[^G,B,] z z2:|
V:2
x4|x4|x4|x4|x4|x4:|
V:3
E,E,D,C,|B,,A,,^G,,^F,,|E,,4|^D,,4|E,,4-|E,, z z2:|
%
V:1
|:[E4G4]|[E2c2][G2e2]|d3e/f/|[G2e2] z2|dagf|fe2d|
V:2
|:x4|x4|G4|x4|A4|B4|
V:3
|:z CCC|CCCC|B,B,B,B,|CC,D,E,|F,F,F,F,|G,G,G,G,|
%
V:1
x4|x4|x4|x4|x4|x4|
V:2
e/d/cc2|z e/c'/ b/a/g/^f/|^f2a/g/f/e/|d2c2|Bg=fe|d2^c_b|
V:3
CC,E,G,|CCCC|B,B,B,[B,G]|[A,G][A,G][A,^F][A,F]|G,2z2|z ^A,=A,G,|
%
V:1
x4|x4|x4|x4|x4|x4|x4|
V:2
aagf|e2^dc'|bfed|^cd z b|d=c z a|cB z f|A2^Ge|
V:3
F,2z2|z CB,A,|^G,G,G,G,|^G,G,G,G,|A,A,A,A,|D,D,D,D,|E,E,E,[E,^G,]|
%
V:1
x4|x4|[C4E4]|[D4F4]|[B,4^G4]|[C4A4]|x4|
V:2
e2^da|^g/^f/ee2|x4|x4|x4|x4|c'e{g}fe|
V:3
[F,A,][F,A,][F,A,]F,|E,4|z A,,A,,A,,|z A,,A,,A,,|z A,,A,,A,,|z A,,C,E,|A,4|
%
V:1
x4|x4|x4|x4|x4|A2x2|Azz2|
V:2
e2^d z|b=d{f}ed|d2^c z|a=cBA|[A2B2f2]e/d/c/B/|x2B2|x4|
V:3
z B,,B,A,|^G,4|z A,,A,G,|F,3E,|D,D,D,D,|E,E,E,E,|F,zz2|
%
V:1
x4|x4|A z z2|x4|x4|x2 (3BA^G|^G4|A z z2:|
V:2
_B4-|Bc/d/ c/_B/A/^G/|x4|z2 z z/ [A/=B/f/]|[A4B4f4]|(3edc x2|x4|x4:|
V:3
[FD][FD][FD][FD]|EEEE|F z z2|z4|D,D,D,D,|E,E,E,E,|A,,4-|A,, z z2:|
W:
W:
W:  From Musica Viva - http://www.musicaviva.com
W:  the Internet center for free sheet music downloads.
